packages/core/src/svgs/ethix.svg

<svg width="24" height="24" viewBox="0 0 24 24" fill="none" xmlns="http://www.w3.org/2000/svg">
<g clip-path="url(#clip0_31_10072)">
<path d="M0 0H24V24H0V0Z" fill="#F0F3FA"/>
<path d="M12.66 4.86408C12.4537 4.76614 12.2283 4.71533 12 4.71533C11.7717 4.71533 11.5462 4.76614 11.34 4.86408L5.80282 7.88551C5.61301 8.00009 5.45381 8.15899 5.33886 8.34858C5.22392 8.53817 5.15665 8.7528 5.14282 8.97408V15.0255C5.14282 15.4241 5.44282 15.9127 5.80282 16.1098L11.34 19.1355C11.7043 19.3369 12.2957 19.3369 12.66 19.1355L18.1971 16.1098C18.3863 15.9956 18.5452 15.8374 18.6601 15.6486C18.775 15.4598 18.8426 15.2461 18.8571 15.0255V8.97408C18.8571 8.57551 18.5571 8.08694 18.1971 7.8898L12.66 4.86408Z" fill="#87F96E"/>
<path d="M12.6729 6.61292L16.5815 8.8072C16.7015 8.88435 16.8086 8.9872 16.8943 9.09863L15.1886 9.98149C15.0815 9.84006 14.9486 9.72435 14.7943 9.63863L14.79 9.63006L10.4357 7.11006L10.8215 6.89578L11.2629 6.64292L11.3229 6.6172C11.5265 6.49461 11.7596 6.42947 11.9973 6.42872C12.235 6.42796 12.4685 6.49162 12.6729 6.61292ZM8.55432 8.16435L13.0543 10.6886C13.2043 10.7743 13.3415 10.8943 13.4443 11.0315L11.8672 11.8458L7.10146 9.10292C7.20554 8.96374 7.33676 8.8471 7.48718 8.76006L8.55432 8.16435ZM6.96861 9.33006L10.6543 11.4729L11.7386 12.0772V13.7058C11.5672 13.6886 11.4086 13.6415 11.2586 13.5643L8.61861 12.0129L8.60575 12.0043C8.47718 11.9443 8.38289 11.9872 8.38289 12.1072C8.38289 12.2315 8.48146 12.3858 8.60575 12.4629L8.61432 12.4672L8.61861 12.4715L8.62718 12.4758L11.2115 13.9972L11.2243 14.0058L11.2372 14.0101C11.3915 14.0958 11.5629 14.1515 11.7429 14.1686V15.6129C11.5864 15.5976 11.4339 15.554 11.2929 15.4843L10.6072 15.0986L8.63575 13.9243L8.62289 13.9201L8.61432 13.9115H8.60575C8.46432 13.8386 8.35289 13.8901 8.35289 14.0272C8.35289 14.1686 8.46432 14.3401 8.60575 14.4301L11.2072 15.9601H11.2157C11.3743 16.0543 11.5586 16.1143 11.7429 16.1315V17.5715C11.5878 17.5556 11.4369 17.5121 11.2972 17.4429L7.47004 15.2272C7.28745 15.1204 7.13527 14.9686 7.02799 14.7863C6.9207 14.604 6.8619 14.3973 6.85718 14.1858V9.81435C6.85718 9.65149 6.90003 9.48435 6.96861 9.33006ZM12.5057 13.5472L12.5272 13.5386L13.7143 12.9558V11.7686C13.7143 11.5972 13.6543 11.4258 13.5857 11.2629L12 12.0772V13.7058C12.1757 13.6886 12.3515 13.6372 12.5057 13.5515V13.5472ZM17.0315 9.33006C17.1043 9.48863 17.1386 9.66006 17.1386 9.83149C17.1388 9.84587 17.1403 9.86021 17.1429 9.87435V14.1643C17.1414 14.3853 17.081 14.6018 16.968 14.7916C16.855 14.9814 16.6935 15.1377 16.5 15.2443L15.4286 15.8743V13.8001L12.5015 15.4501C12.3472 15.5358 12.1757 15.5872 12 15.6043V14.1601C12.1715 14.1429 12.3472 14.0915 12.5015 14.0058H12.5057L15.4286 12.3643V10.5858L15.4243 10.5686C15.4102 10.4443 15.377 10.3228 15.3257 10.2086L17.0315 9.33006ZM12.4972 15.9772L12.4843 15.9858C12.3386 16.0629 12.1672 16.1143 12 16.1272V17.5715C12.1715 17.5543 12.3429 17.5029 12.4972 17.4215L13.7143 16.6843V15.2443L12.4972 15.9772Z" fill="#062F4F"/>
</g>
<defs>
<clipPath id="clip0_31_10072">
<rect width="24" height="24" fill="white"/>
</clipPath>
</defs>
</svg>

<svg xmlns="http://www.w3.org/2000/svg" width="24" height="24" fill="none" viewBox="0 0 24 24"><g clip-path="url(#a)"><path fill="#F0F3FA" d="M0 0h24v24H0z"/><path fill="#87F96E" d="M12.66 4.864a1.54 1.54 0 0 0-1.32 0L5.803 7.886a1.37 1.37 0 0 0-.66 1.088v6.051c0 .4.3.888.66 1.085l5.537 3.026c.364.2.956.2 1.32 0l5.537-3.026a1.37 1.37 0 0 0 .66-1.085v-6.05c0-.4-.3-.888-.66-1.085z"/><path fill="#062F4F" d="m12.673 6.613 3.908 2.194c.12.077.228.18.313.292l-1.705.882a1.3 1.3 0 0 0-.395-.342l-.004-.009-4.354-2.52.386-.214.44-.253.06-.026a1.32 1.32 0 0 1 1.35-.004M8.554 8.164l4.5 2.525a1.3 1.3 0 0 1 .39.342l-1.577.815-4.766-2.743q.16-.211.386-.343zM6.97 9.33l3.685 2.143 1.085.604v1.629a1.3 1.3 0 0 1-.48-.142l-2.64-1.551-.013-.009c-.129-.06-.223-.017-.223.103 0 .125.098.279.223.356l.008.004.005.005.008.004 2.584 1.521.013.009.013.004c.155.086.326.142.506.159v1.444a1.3 1.3 0 0 1-.45-.129l-.686-.385-1.971-1.175-.013-.004-.009-.008h-.008c-.142-.073-.253-.022-.253.115 0 .142.111.313.253.403l2.601 1.53h.009c.158.094.343.154.527.171v1.44a1.3 1.3 0 0 1-.446-.128L7.47 15.227a1.24 1.24 0 0 1-.613-1.041V9.814c0-.163.043-.33.112-.484m5.537 4.217.021-.008 1.187-.583v-1.187c0-.172-.06-.343-.128-.506L12 12.077v1.629c.176-.017.351-.069.506-.154zm4.526-4.217a1.2 1.2 0 0 1 .107.501q0 .023.004.043v4.29a1.24 1.24 0 0 1-.643 1.08l-1.071.63V13.8l-2.927 1.65a1.3 1.3 0 0 1-.502.154V14.16c.172-.017.347-.069.502-.154h.004l2.923-1.642v-1.778l-.005-.017a1.2 1.2 0 0 0-.098-.36zm-4.535 6.647-.013.009a1.3 1.3 0 0 1-.484.141v1.445c.172-.018.343-.07.497-.15l1.217-.738v-1.44z"/></g><defs><clipPath id="a"><path fill="#fff" d="M0 0h24v24H0z"/></clipPath></defs></svg>
